contributed-vectors/pixeldroid.svg

<?xml version="1.0" encoding="UTF-8" standalone="no"?>
<svg
   xmlns:dc="http://purl.org/dc/elements/1.1/"
   xmlns:cc="http://creativecommons.org/ns#"
   xmlns:rdf="http://www.w3.org/1999/02/22-rdf-syntax-ns#"
   xmlns:svg="http://www.w3.org/2000/svg"
   xmlns="http://www.w3.org/2000/svg"
   xmlns:sodipodi="http://sodipodi.sourceforge.net/DTD/sodipodi-0.dtd"
   xmlns:inkscape="http://www.inkscape.org/namespaces/inkscape"
   viewBox="0 0 192 192"
   version="1.1"
   id="svg16"
   sodipodi:docname="pixeldroid.svg"
   inkscape:version="0.92.4 (5da689c313, 2019-01-14)">
  <metadata
     id="metadata20">
    <rdf:RDF>
      <cc:Work
         rdf:about="">
        <dc:format>image/svg+xml</dc:format>
        <dc:type
           rdf:resource="http://purl.org/dc/dcmitype/StillImage" />
        <dc:title></dc:title>
      </cc:Work>
    </rdf:RDF>
  </metadata>
  <sodipodi:namedview
     pagecolor="#ffffff"
     bordercolor="#666666"
     borderopacity="1"
     objecttolerance="10"
     gridtolerance="10"
     guidetolerance="10"
     inkscape:pageopacity="0"
     inkscape:pageshadow="2"
     inkscape:window-width="1920"
     inkscape:window-height="1017"
     id="namedview18"
     showgrid="false"
     inkscape:zoom="1.7383042"
     inkscape:cx="121.54059"
     inkscape:cy="111.51134"
     inkscape:window-x="-8"
     inkscape:window-y="-8"
     inkscape:window-maximized="1"
     inkscape:current-layer="svg16"
     inkscape:snap-global="true">
    <inkscape:grid
       type="xygrid"
       id="grid827"
       spacingx="4"
       spacingy="4" />
  </sodipodi:namedview>
  <defs
     id="defs4">
    <style
       id="style2">.a{fill:none;stroke:#b1b5bd;stroke-linecap:round;stroke-linejoin:round;isolation:isolate;opacity:0.63;}</style>
  </defs>
  <path
     style="fill:#ff837d;opacity:1;stroke:none"
     d="M 89.333984 8.2734375 A 88 88 0 0 0 8 96 A 88 88 0 0 0 26.066406 149.30273 L 130.875 91.615234 L 89.333984 8.2734375 z "
     id="circle8" />
  <path
     inkscape:connector-curvature="0"
     id="path66"
     style="fill:#f8c18c;stroke-width:3.54584122"
     d="M 96.000005,95.999998 C 110.506,76.682426 106.4615,49.07179 86.966365,34.329895 67.47123,19.588036 40.70744,23.297355 26.20144,42.614932 l -0.41689,0.555166 c 1.03917,-1.404492 2.12674,-2.786231 3.2629,-4.143157 C 52.17026,11.410945 88.091814,1.8733405 120.78874,11.849398 l 1.89566,0.62623 c 23.15571,7.649542 39.98052,35.999917 32.61183,59.064546 -7.3687,23.064594 -36.14052,32.109366 -59.296225,24.459824 z"
     sodipodi:nodetypes="cccccccsc" />
  <path
     inkscape:connector-curvature="0"
     id="path64"
     d="M 96.000005,95.999998 C 119.15571,103.64954 143.90062,91.153128 151.26932,68.088534 158.63801,45.023905 142.90495,19.012098 116.3933,10.447301 L 114.49764,10.021 c 19.08912,5.031167 28.83667,10.908557 38.35636,18.913704 20.68131,17.391002 30.818,41.117526 31.13867,67.044034 l 0.003,0.55641 C 184.14313,120.83474 164.29944,148.14777 140,148 115.70057,147.85233 96.147093,120.29959 95.999635,95.999998 Z"
     style="fill:#98dc9a;stroke-width:3.54584122"
     sodipodi:nodetypes="csccsccccc" />
  <path
     inkscape:connector-curvature="0"
     id="path62"
     d="m 96.000005,95.999998 c 0.147454,24.299592 19.965585,44.118102 44.265015,44.265872 24.29944,0.14766 43.87848,-19.43113 43.73102,-43.730722 l -0.003,-0.55641 c 0.25952,20.159022 -6.36861,40.426842 -20.24054,56.994322 -10.21313,12.19772 -23.07917,20.86853 -37.07959,25.88874 l -1.51892,0.51484 c -22.92756,7.77144 -48.615553,-2.00431 -56.666101,-25.02815 -8.050552,-23.02381 4.58492,-50.57705 27.512486,-58.348492 z"
     style="fill:#9abeff;stroke-width:3.54584122"
     sodipodi:nodetypes="ccccsccscc" />
  <path
     inkscape:connector-curvature="0"
     id="path60"
     d="M 96.000005,95.999998 C 73.072439,103.77144 62.512448,128.73595 70.563,151.75976 c 8.050548,23.02384 31.66306,35.38832 54.59062,27.61688 l 1.51892,-0.51484 c -28.512739,10.22396 -62.330343,5.3067 -87.42618,-15.7965 -5.16087,-4.33981 -9.70872,-9.13745 -13.63311,-14.28129 l -1.08961,-1.49387 C 10.12149,127.54451 14.912411,100.0558 34.484401,85.892431 54.056381,71.72906 81.597853,76.254373 96.000005,95.999998 Z"
     style="fill:#8c72bd;stroke-width:3.54584122"
     sodipodi:nodetypes="cscccccsc" />
  <path
     inkscape:connector-curvature="0"
     id="path100"
     d="m 92.06,112.152 h 14.16248 c 14.28436,0 25.86452,-8.77873 25.86452,-22.652 0,-13.87326 -11.67971,-25.587659 -25.96407,-25.587659 H 82.938154 c -8.240981,0 -14.921614,6.488347 -14.921614,14.492153 L 68,136 Z"
     style="fill:#ffffff;stroke-width:3.3399508"
     sodipodi:nodetypes="cssssscc" />
</svg>

<svg xmlns="http://www.w3.org/2000/svg" id="svg16" version="1.1" viewBox="0 0 192 192"><defs id="defs4"><style id="style2">.a{fill:none;stroke:#b1b5bd;stroke-linecap:round;stroke-linejoin:round;isolation:isolate;opacity:.63}</style></defs><path id="circle8" d="M89.334 8.273A88 88 0 0 0 8 96a88 88 0 0 0 18.066 53.303l104.809-57.688L89.334 8.273z" style="fill:#ff837d;opacity:1;stroke:none"/><path id="path66" d="M96 96c14.506-19.318 10.462-46.928-9.034-61.67-19.495-14.742-46.259-11.033-60.765 8.285l-.416.555a87.788 87.788 0 0 1 3.262-4.143C52.17 11.41 88.092 1.873 120.79 11.849l1.895.627c23.156 7.65 39.98 36 32.612 59.064C147.928 94.605 119.156 103.65 96 96z" style="fill:#f8c18c;stroke-width:3.54584122"/><path id="path64" d="M96 96c23.156 7.65 47.9-4.847 55.27-27.911 7.368-23.065-8.365-49.077-34.877-57.642l-1.895-.426c19.089 5.031 28.836 10.909 38.356 18.914 20.681 17.39 30.818 41.117 31.139 67.044l.003.556c.147 24.3-19.697 51.613-43.996 51.465-24.3-.148-43.853-27.7-44-52Z" style="fill:#98dc9a;stroke-width:3.54584122"/><path id="path62" d="M96 96c.147 24.3 19.966 44.118 44.265 44.266 24.3.148 43.879-19.431 43.731-43.73l-.003-.557c.26 20.159-6.369 40.427-20.24 56.994-10.214 12.198-23.08 20.869-37.08 25.889l-1.519.515c-22.928 7.771-48.616-2.005-56.666-25.029C60.438 131.325 73.073 103.771 96 96z" style="fill:#9abeff;stroke-width:3.54584122"/><path id="path60" d="M96 96c-22.928 7.771-33.488 32.736-25.437 55.76 8.05 23.024 31.663 35.388 54.59 27.617l1.52-.515c-28.513 10.224-62.33 5.307-87.427-15.797a89.902 89.902 0 0 1-13.633-14.281l-1.09-1.494c-14.402-19.745-9.61-47.234 9.961-61.398C54.056 71.73 81.598 76.254 96 96Z" style="fill:#8c72bd;stroke-width:3.54584122"/><path id="path100" d="M92.06 112.152h14.162c14.285 0 25.865-8.779 25.865-22.652 0-13.873-11.68-25.588-25.964-25.588H82.938c-8.24 0-14.921 6.489-14.921 14.492L68 136Z" style="fill:#fff;stroke-width:3.3399508"/></svg>
